X:1317
T:"MacLean's Favourite"  (reel)   1317
C:after Chief  F. O'Neill
N:LOVE the "B" part!
B:O'Neill's Music Of Ireland (The 1850) Lyon & Healy, Chicago, 1903 edition
Z:FROM O'NEILL'S TO NOTEWORTHY, FROM NOTEWORTHY TO ABC, MIDI AND .TXT BY VINCE
BRENNAN July 2003 (HTTP://WWW.SOSYOURMOM.COM)
I:abc2nwc
M:C|
L:1/8
K:G
(gf)"^Segno"|edBA GABc|dGBG dGBe|edBA GABA|Bee^d efgf|
edBA GABc|dGBG dGBe|edBA GABA|Bee^d e2||
e2|defg afdf|e^def e=dBe|defg afdf|e^def d2d2|
defg afdf|e^def e=dBf|g2ge f2f^d|efe^d efg"^Dal Segno"f|]
